flaticon/emoticons/kiss-1.svg

<svg xmlns="http://www.w3.org/2000/svg" width="32" height="32" viewBox="0 0 24 24">
    <path d="M 12 0 C 5.382812 0 0 5.382812 0 12 C 0 18.617188 5.382812 24 12 24 C 18.617188 24 24 18.617188 24 12 C 24 5.382812 18.617188 0 12 0 Z M 12 22.910156 C 5.984375 22.910156 1.089844 18.015625 1.089844 12 C 1.089844 5.984375 5.984375 1.089844 12 1.089844 C 18.015625 1.089844 22.910156 5.984375 22.910156 12 C 22.910156 18.015625 18.015625 22.910156 12 22.910156 Z M 12 22.910156"/>
    <path d="M7.089844 6.546875C5.585938 6.546875 4.363281 7.769531 4.363281 9.273438 4.363281 9.574219 4.609375 9.816406 4.910156 9.816406 5.210938 9.816406 5.453125 9.574219 5.453125 9.273438 5.453125 8.371094 6.1875 7.636719 7.089844 7.636719 7.992188 7.636719 8.726562 8.371094 8.726562 9.273438 8.726562 9.574219 8.972656 9.816406 9.273438 9.816406 9.574219 9.816406 9.816406 9.574219 9.816406 9.273438 9.816406 7.769531 8.59375 6.546875 7.089844 6.546875zM16.910156 6.546875C15.40625 6.546875 14.183594 7.769531 14.183594 9.273438 14.183594 9.574219 14.425781 9.816406 14.726562 9.816406 15.027344 9.816406 15.273438 9.574219 15.273438 9.273438 15.273438 8.371094 16.007812 7.636719 16.910156 7.636719 17.8125 7.636719 18.546875 8.371094 18.546875 9.273438 18.546875 9.574219 18.789062 9.816406 19.089844 9.816406 19.390625 9.816406 19.636719 9.574219 19.636719 9.273438 19.636719 7.769531 18.414062 6.546875 16.910156 6.546875zM18.136719 14.636719C18.136719 14.453125 18.046875 14.285156 17.894531 14.183594L15.574219 12.636719C15.324219 12.46875 14.984375 12.539062 14.820312 12.789062 14.652344 13.039062 14.71875 13.378906 14.96875 13.542969L16.609375 14.636719 14.96875 15.726562C14.820312 15.828125 14.726562 16 14.726562 16.183594 14.726562 16.363281 14.820312 16.535156 14.96875 16.636719L16.609375 17.726562 14.96875 18.820312C14.71875 18.984375 14.652344 19.324219 14.820312 19.574219 14.925781 19.734375 15.097656 19.816406 15.273438 19.816406 15.375 19.816406 15.480469 19.789062 15.574219 19.726562L17.894531 18.179688C18.046875 18.078125 18.136719 17.910156 18.136719 17.726562 18.136719 17.546875 18.046875 17.375 17.894531 17.273438L16.257812 16.183594 17.894531 15.089844C18.046875 14.988281 18.136719 14.820312 18.136719 14.636719zM18.136719 14.636719"/>
</svg>

<svg xmlns="http://www.w3.org/2000/svg" width="32" height="32" viewBox="0 0 24 24">
    <path d="M12 0C5.383 0 0 5.383 0 12s5.383 12 12 12 12-5.383 12-12S18.617 0 12 0zm0 22.91C5.984 22.91 1.09 18.016 1.09 12S5.984 1.09 12 1.09 22.91 5.984 22.91 12 18.016 22.91 12 22.91zm0 0"/>
    <path d="M7.09 6.547a2.729 2.729 0 0 0-2.727 2.726.545.545 0 0 0 1.09 0c0-.902.734-1.636 1.637-1.636.902 0 1.637.734 1.637 1.636a.545.545 0 0 0 1.09 0A2.729 2.729 0 0 0 7.09 6.547zm0 0M16.91 6.547a2.729 2.729 0 0 0-2.726 2.726.545.545 0 0 0 1.09 0c0-.902.734-1.636 1.636-1.636.902 0 1.637.734 1.637 1.636a.545.545 0 0 0 1.09 0 2.729 2.729 0 0 0-2.727-2.726zm0 0M18.137 14.637a.541.541 0 0 0-.242-.453l-2.32-1.547a.542.542 0 0 0-.755.152.541.541 0 0 0 .149.754l1.64 1.094-1.64 1.09a.558.558 0 0 0-.242.457c0 .18.093.351.242.453l1.64 1.09-1.64 1.093a.541.541 0 0 0-.149.754c.106.16.278.242.453.242a.54.54 0 0 0 .301-.09l2.32-1.546a.546.546 0 0 0 0-.906l-1.636-1.09 1.637-1.094a.541.541 0 0 0 .242-.453zm0 0"/>
</svg>
